X: 7
T:Miss Johnston (version)
R:Reel
S:Gerry O'Connor, Louth (fiddle)
M:4/4
D:Session tape - Ballaghadereen Fleadh, 1977
Z:Bernie Stocks
K:G
GABc d2Bc | d2gd adgd |1 GABc dBcB | Aaag fdcA
:|2 GABc defg | a3g fdcA |: BG (3.G.G.G DG (3.G.G.G | BG (3.G.G.G cAdc
|1 BG (3.G.G.G DG (3.G.G.G | FGAB cAdc :|2 Bdgf edcB | AGFE DcBA ||
